X:44
M:C
L:1/8
Q:1/4=140
K:D Minor
c|:A<d d>f c>fA>a|f>c A<F G/G/G A2|1 A<d d>f c>fA>d|
|:D>GG>B c>B A<c|B<GG>B c>A F<A|1 D<G G>B c>B A<d|

